X:0283
M:C|
L:1/8
Q:1/2=96
K:D
fg|a2fa g2eg|f2df e2A2|=c2c2 efge|=c2c2 efge|
   a2fa g2eg|f2df e2A2| d2d2 efge| f2d2 d2 :|

